X:1
T:Toiling for Jesus
T:Toiling for Jesus
T:William Augustine Ogden
T:William Augustine Ogden, 1880
T:Public Domain Courtesy of the Cyber Hymnal™
T:Public Domain Courtesy of the Cyber Hymnal™
C:William Augustine Ogden
Z:Public Domain
Z:Courtesy of the Cyber Hymnal™
%%score ( 1 2 ) ( 3 4 )
L:1/8
Q:1/4=102
M:4/4
K:A
V:1 treble 
V:2 treble 
V:3 bass 
V:4 bass 
V:1
"^Spirited" [CA]2 [CE]2 [CA]2 [CE]2 | [CA][B,G][CA][DB] [Ec]2 [EA]2 | [EB]2 E2 [EB]2 [Ed]2 | %3
w: 1.~Bright- ly, sweet- ly,|toil- ing for the Mas- ter,|Go we forth with|
w: 2.~Glad- ly, sweet- ly,|we will tell the sto- ry|Of His love to|
w: 3.~Meek- ly, meek- ly|toil- ing for the Mas- ter,|Walk- ing faith- ful-|
 [Ec][EB][EA][EB] [Ec]4 | [CA]2 [CE]2 [CA]2 [CE]2 | [CA][B,G][CA][DB] [Ec]2 [EA]2 | %6
w: will- ing hands to do|What- so- e’er to|us He hath ap- point- ed,|
w: mor- tals here be- low;|Christ, the brigh- tness|of the Fa- ther’s glo- ry,|
w: ly the path He trod;|Lead- ing wan- d’rers|to the dear Re- deem- er,|
 [EB]2 E2 [EB]2 [Ed]2 | [Ec][EB][EA][DG] [CA]4 ||"^Refrain" [DF]4 [FA]3 [DF] | [CE]4 [CA]2 z2 | %10
w: Faith- ful- ly our|mis- sion will pur- sue.|||
w: Free- ly here His|bless- ing will bes- tow.|Toil- ing for|Je- sus,|
w: Point- ing sin- ners|to the Lamb of God.|||
 [EB][EB][EB][EB] [EB]2 z2 | [Ec][Ec][Ec][Ec] [Ec]3 z | [DF]4 [FA]3 [DF] | [CE]4 [CA]2 z2 | %14
w: ||||
w: Joy- ful- ly we go;|joy- ful- ly we go,|Toil- ing for|Je- sus|
w: ||||
 [DB][DB][DB][CA] [EA]2 [DG]2 | [CA]6 z2 |] %16
w: ||
w: In His vine- yard here be-|low.|
w: ||
V:2
 x8 | x8 | x2 E2 x4 | x8 | x8 | x8 | x2 E2 x4 | x8 || x8 | x8 | x8 | x8 | x8 | x8 | x8 | x8 |] %16
V:3
 [A,,A,]2 [A,,A,]2 [A,,A,]2 [A,,A,]2 | [A,,A,][A,,A,][A,,A,][A,,A,] [A,,A,]2 [C,A,]2 | %2
w: ||
 [E,G,]2 [E,G,]2 [E,G,]2 [E,B,]2 | [E,A,][E,G,][E,F,][E,G,] [A,,A,]4 | %4
w: ||
 [A,,A,]2 [A,,A,]2 [A,,A,]2 [A,,A,]2 | [A,,A,][A,,A,][A,,A,][A,,A,] [A,,A,]2 [C,A,]2 | %6
w: ||
 [E,G,]2 [E,G,]2 [E,G,]2 [E,B,]2 | [E,A,][E,D][E,C][E,B,] [A,,A,]4 || %8
w: ||
 [D,A,]2 [D,A,]2 [D,A,]2 [D,A,]2 | [A,,A,]2 [A,,A,]2 [A,,A,]2 [C,A,]2 | %10
w: Toil- ing, toil- ing|for the Mas- ter,|
 [E,G,][E,G,][E,G,][E,G,] G,2 (C,B,,) | [A,,A,][A,,A,][A,,A,][A,,A,] [A,,A,]3 z | %12
w: * * * * yes, Toil- *||
 [D,A,]2 [D,A,]2 [D,A,]2 [C,A,]2 | [A,,A,]2 [A,,A,]2 [A,,A,]2 [C,A,]2 | %14
w: ing, toil- ing for|the Mas- ter *|
 [E,G,][E,G,][E,G,][E,A,] [E,C]2 [E,B,]2 | [A,,A,]6 z2 |] %16
w: ||
V:4
 x8 | x8 | x8 | x8 | x8 | x8 | x8 | x8 || x8 | x8 | x4 (E,D,) x2 | x8 | x8 | x8 | x8 | x8 |] %16

